public/facebook.svg

<svg width="23" height="22" viewBox="0 0 23 22" fill="none" xmlns="http://www.w3.org/2000/svg">
<path d="M12.7289 19.9984V11.8024H15.4939L15.9049 8.59337H12.7289V6.54937C12.7289 5.62337 12.9869 4.98937 14.3159 4.98937H15.9999V2.12837C15.1809 2.04037 14.3569 1.99837 13.5329 2.00137C11.0889 2.00137 9.41094 3.49337 9.41094 6.23237V8.58737H6.66394V11.7964H9.41694V19.9984H12.7289Z" fill="#141414"/>
</svg>

<svg width="23" height="22" fill="none" xmlns="http://www.w3.org/2000/svg"><path d="M12.729 19.998v-8.196h2.765l.41-3.209H12.73V6.55c0-.926.258-1.56 1.587-1.56H16V2.13A22.336 22.336 0 0 0 13.533 2c-2.444 0-4.122 1.492-4.122 4.231v2.355H6.664v3.21h2.753v8.201h3.312Z" fill="#141414"/></svg>
